svg/gke.svg

<?xml version="1.0" encoding="UTF-8"?>
<svg xmlns="http://www.w3.org/2000/svg" xmlns:xlink="http://www.w3.org/1999/xlink" width="32" height="32" viewBox="0 0 32 32">
<rect x="-3.2" y="-3.2" width="38.4" height="38.4" fill="rgb(100%, 100%, 100%)" fill-opacity="1"/>
<path fill-rule="nonzero" fill="rgb(68.235294%, 79.607843%, 98.039216%)" fill-opacity="1" d="M 16.007812 2.664062 C 16.082031 2.695312 16.152344 2.734375 16.222656 2.773438 C 20.027344 4.957031 23.871094 7.140625 27.671875 9.328125 L 27.671875 22.671875 C 27.503906 22.78125 27.328125 22.871094 27.15625 22.96875 C 23.59375 25.007812 20.027344 27.050781 16.460938 29.085938 C 16.3125 29.175781 16.164062 29.265625 16.007812 29.339844 C 12.84375 27.542969 9.675781 25.726562 6.515625 23.921875 C 5.789062 23.503906 5.050781 23.097656 4.328125 22.671875 L 4.328125 9.328125 C 4.800781 9.046875 5.28125 8.78125 5.757812 8.507812 C 8.648438 6.855469 11.539062 5.207031 14.429688 3.554688 C 14.957031 3.261719 15.476562 2.949219 16.007812 2.664062 M 16.007812 2.664062 "/>
<path fill-rule="nonzero" fill="rgb(100%, 100%, 100%)" fill-opacity="1" d="M 15.386719 6 C 15.394531 7.105469 15.386719 8.207031 15.390625 9.3125 C 15.382812 9.386719 15.414062 9.546875 15.328125 9.578125 C 13.78125 10.476562 12.222656 11.367188 10.675781 12.269531 C 10.707031 12.296875 10.742188 12.324219 10.777344 12.347656 C 12.453125 13.316406 14.132812 14.28125 15.808594 15.253906 C 15.882812 15.289062 15.96875 15.375 16.050781 15.308594 C 17.6875 14.367188 19.332031 13.410156 20.96875 12.46875 C 21.070312 12.40625 21.199219 12.355469 21.269531 12.261719 C 19.707031 11.351562 18.132812 10.453125 16.566406 9.542969 C 16.554688 8.351562 16.566406 7.152344 16.5625 5.960938 C 19.425781 7.574219 22.289062 9.199219 25.148438 10.816406 C 25.164062 11.023438 25.15625 11.230469 25.15625 11.4375 L 25.15625 20 C 25.152344 20.203125 25.175781 20.414062 25.125 20.605469 C 24.015625 19.96875 22.90625 19.328125 21.800781 18.683594 C 21.792969 16.898438 21.796875 15.109375 21.796875 13.320312 L 16.640625 16.390625 L 16.640625 22.53125 C 18.203125 21.613281 19.753906 20.679688 21.3125 19.757812 C 22.363281 20.355469 23.410156 20.96875 24.460938 21.570312 C 21.707031 23.132812 18.949219 24.691406 16.191406 26.253906 C 16.128906 26.289062 16.066406 26.320312 16.003906 26.351562 C 13.175781 24.757812 10.347656 23.15625 7.519531 21.558594 C 8.570312 20.953125 9.617188 20.335938 10.671875 19.746094 L 15.359375 22.535156 L 15.359375 16.390625 C 13.640625 15.363281 11.921875 14.34375 10.203125 13.324219 L 10.203125 18.3125 C 10.203125 18.429688 10.214844 18.558594 10.183594 18.671875 C 9.070312 19.3125 7.960938 19.957031 6.84375 20.597656 C 6.839844 17.503906 6.84375 14.40625 6.84375 11.3125 C 6.84375 11.148438 6.839844 10.984375 6.851562 10.816406 C 9.695312 9.214844 12.539062 7.597656 15.386719 6 M 15.386719 6 "/>
<path fill-rule="nonzero" fill="rgb(40%, 61.568627%, 96.470588%)" fill-opacity="1" d="M 10.203125 13.324219 C 11.921875 14.34375 13.640625 15.363281 15.359375 16.390625 L 15.359375 22.535156 L 10.671875 19.746094 C 9.617188 20.335938 8.570312 20.953125 7.519531 21.558594 C 7.296875 21.433594 7.074219 21.3125 6.851562 21.183594 C 6.835938 20.988281 6.84375 20.792969 6.84375 20.597656 C 7.960938 19.957031 9.070312 19.3125 10.183594 18.671875 C 10.214844 18.558594 10.203125 18.429688 10.203125 18.3125 Z M 10.203125 13.324219 "/>
<path fill-rule="nonzero" fill="rgb(25.882353%, 52.156863%, 95.686275%)" fill-opacity="1" d="M 21.796875 13.320312 C 21.796875 15.109375 21.792969 16.898438 21.800781 18.683594 C 22.90625 19.328125 24.015625 19.96875 25.125 20.605469 C 25.183594 20.78125 25.152344 20.996094 25.152344 21.179688 C 24.921875 21.3125 24.691406 21.441406 24.460938 21.570312 C 23.410156 20.96875 22.363281 20.355469 21.3125 19.757812 C 19.753906 20.679688 18.203125 21.613281 16.640625 22.53125 L 16.640625 16.390625 Z M 21.796875 13.320312 "/>
</svg>

<svg role="img" viewBox="0 0 32 32" xmlns="http://www.w3.org/2000/svg"><path d="M-3.2-3.2h38.4v38.4H-3.2z" fill="rgb(100%, 100%, 100%)"/><path d="M16.008 2.664q.11.048.215.11c3.804 2.183 7.648 4.367 11.449 6.554v13.344c-.168.11-.344.2-.516.297-3.562 2.039-7.129 4.082-10.695 6.117-.148.09-.297.18-.453.254-3.164-1.797-6.332-3.613-9.492-5.418-.727-.418-1.465-.824-2.188-1.25V9.328c.473-.281.953-.547 1.43-.82 2.89-1.653 5.781-3.301 8.672-4.953.527-.293 1.047-.606 1.578-.89m0 0" fill="rgb(68.235296%, 79.607844%, 98.039216%)"/><path d="M15.387 6c.008 1.105 0 2.207.004 3.313-.008.074.023.234-.063.265-1.547.899-3.105 1.79-4.652 2.692a1 1 0 0 0 .101.078c1.676.968 3.356 1.933 5.032 2.906.074.035.16.121.242.055 1.637-.942 3.281-1.899 4.918-2.84.101-.063.23-.114.3-.207-1.562-.91-3.136-1.809-4.703-2.719-.011-1.191 0-2.39-.003-3.582 2.863 1.613 5.726 3.238 8.585 4.855.016.207.008.414.008.621V20c-.004.203.02.414-.031.605a564 564 0 0 1-3.324-1.921c-.008-1.786-.004-3.575-.004-5.364l-5.156 3.07v6.141c1.562-.918 3.113-1.851 4.672-2.773 1.05.597 2.097 1.21 3.148 1.812-2.754 1.563-5.512 3.121-8.27 4.684q-.094.051-.187.098c-2.828-1.594-5.656-3.196-8.484-4.793 1.05-.606 2.097-1.223 3.152-1.813l4.687 2.79V16.39c-1.718-1.028-3.437-2.047-5.156-3.067v4.989c0 .117.012.246-.02.359-1.113.64-2.222 1.285-3.34 1.926-.003-3.094 0-6.192 0-9.285 0-.165-.003-.329.009-.497 2.843-1.6 5.687-3.217 8.535-4.815m0 0" fill="rgb(100%, 100%, 100%)"/><path d="M10.203 13.324q2.579 1.528 5.156 3.067v6.144l-4.687-2.789c-1.055.59-2.102 1.207-3.152 1.813-.223-.125-.446-.247-.668-.375-.016-.196-.008-.391-.008-.586 1.117-.641 2.226-1.285 3.34-1.926.03-.113.02-.242.02-.36Zm0 0" fill="rgb(40.000001%, 61.56863%, 96.470588%)"/><path d="M21.797 13.32c0 1.79-.004 3.578.004 5.364q1.659.966 3.324 1.921c.059.176.027.391.027.575q-.345.198-.691.39c-1.05-.601-2.098-1.215-3.148-1.812-1.56.922-3.11 1.855-4.672 2.773v-6.14Zm0 0" fill="rgb(25.882354%, 52.156866%, 95.686275%)"/></svg>
